docs/.gitbook/assets/icon-arrows-expand-16@dark.svg

<svg width="32" height="32" viewBox="0 0 16 16" fill="none" xmlns="http://www.w3.org/2000/svg">
<rect x="0" y="0" width="16" height="16" fill="#181c1f"/>
<path fill-rule="evenodd" clip-rule="evenodd" d="M9.5 1.75C9.5 1.33579 9.83579 1 10.25 1H14.25C14.6642 1 15 1.33579 15 1.75V5.75C15 6.16421 14.6642 6.5 14.25 6.5C13.8358 6.5 13.5 6.16421 13.5 5.75V3.56066L9.53033 7.53033C9.23744 7.82322 8.76256 7.82322 8.46967 7.53033C8.17678 7.23744 8.17678 6.76256 8.46967 6.46967L12.4393 2.5H10.25C9.83579 2.5 9.5 2.16421 9.5 1.75ZM7.53033 8.46967C7.82322 8.76256 7.82322 9.23744 7.53033 9.53033L3.56066 13.5H5.75C6.16421 13.5 6.5 13.8358 6.5 14.25C6.5 14.6642 6.16421 15 5.75 15H1.75C1.55109 15 1.36032 14.921 1.21967 14.7803C1.07902 14.6397 1 14.4489 1 14.25L1 10.25C1 9.83579 1.33579 9.5 1.75 9.5C2.16421 9.5 2.5 9.83579 2.5 10.25L2.5 12.4393L6.46967 8.46967C6.76256 8.17678 7.23744 8.17678 7.53033 8.46967Z" fill="#fff"/>
</svg>

<svg xmlns="http://www.w3.org/2000/svg" width="32" height="32" fill="none" viewBox="0 0 16 16"><path fill="#181c1f" d="M0 0h16v16H0z"/><path fill="#fff" fill-rule="evenodd" d="M9.5 1.75a.75.75 0 0 1 .75-.75h4a.75.75 0 0 1 .75.75v4a.75.75 0 0 1-1.5 0V3.56L9.53 7.53a.75.75 0 0 1-1.06-1.06l3.97-3.97h-2.19a.75.75 0 0 1-.75-.75M7.53 8.47a.75.75 0 0 1 0 1.06L3.56 13.5h2.19a.75.75 0 0 1 0 1.5h-4a.75.75 0 0 1-.75-.75v-4a.75.75 0 0 1 1.5 0v2.19l3.97-3.97a.75.75 0 0 1 1.06 0" clip-rule="evenodd"/></svg>
